assets/img/Main-Logo.svg

<svg width="276" height="31" viewBox="0 0 276 31" fill="none" xmlns="http://www.w3.org/2000/svg">
<path d="M11.5622 1.29366C14.6336 1.29366 17.3177 1.90241 19.6144 3.11992C21.911 4.33743 23.6819 6.05301 24.9271 8.26666C26.2 10.4526 26.8364 12.9845 26.8364 15.8623C26.8364 18.7123 26.2 21.2442 24.9271 23.4579C23.6819 25.6715 21.8972 27.3871 19.5728 28.6046C17.2762 29.8221 14.606 30.4309 11.5622 30.4309H0.646118V1.29366H11.5622ZM11.1056 24.288C13.7897 24.288 15.8788 23.5547 17.373 22.0882C18.8672 20.6216 19.6144 18.5463 19.6144 15.8623C19.6144 13.1782 18.8672 11.0891 17.373 9.59486C15.8788 8.10064 13.7897 7.35353 11.1056 7.35353H7.74364V24.288H11.1056Z" fill="black"/>
<path d="M37.9003 6.97998V12.8738H47.4052V18.3526H37.9003V24.7445H48.6504V30.4309H30.8028V1.29366H48.6504V6.97998H37.9003Z" fill="black"/>
<path d="M80.6106 1.29366L70.2756 30.4309H61.3934L51.0584 1.29366H58.6125L65.8345 23.2918L73.0981 1.29366H80.6106Z" fill="black"/>
<path d="M116.574 1.29366V30.4309H109.477V12.9568L102.96 30.4309H97.2325L90.6745 12.9153V30.4309H83.577V1.29366H91.9612L100.138 21.4656L108.232 1.29366H116.574Z" fill="black"/>
<path d="M135.458 30.7214C132.719 30.7214 130.201 30.085 127.904 28.8121C125.635 27.5393 123.823 25.7684 122.467 23.4994C121.139 21.2027 120.475 18.6293 120.475 15.7792C120.475 12.9292 121.139 10.3696 122.467 8.10064C123.823 5.83165 125.635 4.06073 127.904 2.78788C130.201 1.51503 132.719 0.878601 135.458 0.878601C138.198 0.878601 140.702 1.51503 142.971 2.78788C145.267 4.06073 147.066 5.83165 148.367 8.10064C149.695 10.3696 150.359 12.9292 150.359 15.7792C150.359 18.6293 149.695 21.2027 148.367 23.4994C147.038 25.7684 145.24 27.5393 142.971 28.8121C140.702 30.085 138.198 30.7214 135.458 30.7214ZM135.458 24.2465C137.783 24.2465 139.636 23.4717 141.02 21.9221C142.431 20.3726 143.137 18.3249 143.137 15.7792C143.137 13.2059 142.431 11.1582 141.02 9.63636C139.636 8.08681 137.783 7.31203 135.458 7.31203C133.106 7.31203 131.225 8.07297 129.813 9.59486C128.43 11.1167 127.738 13.1782 127.738 15.7792C127.738 18.3526 128.43 20.4141 129.813 21.9636C131.225 23.4855 133.106 24.2465 135.458 24.2465Z" fill="black"/>
<path d="M169.167 30.4309L163.107 19.4318H161.405V30.4309H154.307V1.29366H166.22C168.516 1.29366 170.467 1.69488 172.072 2.49733C173.705 3.29978 174.922 4.40661 175.725 5.81781C176.527 7.20134 176.928 8.7509 176.928 10.4665C176.928 12.4034 176.375 14.1328 175.268 15.6547C174.189 17.1766 172.584 18.2558 170.453 18.8922L177.177 30.4309H169.167ZM161.405 14.4096H165.805C167.105 14.4096 168.074 14.0913 168.71 13.4549C169.374 12.8185 169.706 11.9192 169.706 10.757C169.706 9.6502 169.374 8.77857 168.71 8.14215C168.074 7.50572 167.105 7.18751 165.805 7.18751H161.405V14.4096Z" fill="black"/>
<path d="M203.589 10.674C203.589 12.3619 203.202 13.9115 202.427 15.3227C201.652 16.7062 200.462 17.8269 198.858 18.6847C197.253 19.5425 195.26 19.9714 192.881 19.9714H188.481V30.4309H181.384V1.29366H192.881C195.205 1.29366 197.17 1.69488 198.775 2.49733C200.379 3.29978 201.583 4.40661 202.386 5.81781C203.188 7.22901 203.589 8.84775 203.589 10.674ZM192.341 14.3265C193.697 14.3265 194.707 14.0083 195.371 13.3719C196.035 12.7355 196.367 11.8362 196.367 10.674C196.367 9.51185 196.035 8.61255 195.371 7.97612C194.707 7.3397 193.697 7.02149 192.341 7.02149H188.481V14.3265H192.341Z" fill="black"/>
<path d="M232.52 1.29366V30.4309H225.422V18.4356H214.382V30.4309H207.284V1.29366H214.382V12.7078H225.422V1.29366H232.52Z" fill="black"/>
<path d="M244.741 1.29366V30.4309H237.644V1.29366H244.741Z" fill="black"/>
<path d="M267.74 30.4309L261.805 21.5071L256.575 30.4309H248.523L257.862 15.6132L248.316 1.29367H256.575L262.428 10.0929L267.574 1.29367H275.626L266.371 15.9868L276 30.4309H267.74Z" fill="#7000FF"/>
</svg>

<svg width="276" height="31" fill="none" xmlns="http://www.w3.org/2000/svg"><path d="M11.562 1.294c3.072 0 5.756.608 8.052 1.826 2.297 1.217 4.068 2.933 5.313 5.147 1.273 2.186 1.91 4.718 1.91 7.595 0 2.85-.637 5.382-1.91 7.596-1.245 2.214-3.03 3.93-5.354 5.147-2.297 1.217-4.967 1.826-8.01 1.826H.645V1.294h10.916Zm-.456 22.994c2.684 0 4.773-.733 6.267-2.2 1.494-1.466 2.241-3.542 2.241-6.226s-.747-4.773-2.241-6.267C15.879 8.1 13.79 7.354 11.106 7.354H7.744v16.934h3.362ZM37.9 6.98v5.894h9.505v5.479H37.9v6.391h10.75v5.687H30.803V1.294H48.65V6.98H37.9ZM80.61 1.294 70.277 30.43h-8.883L51.058 1.294h7.554l7.223 21.998 7.263-21.998h7.513ZM116.574 1.294V30.43h-7.097V12.957L102.96 30.43h-5.727l-6.559-17.516v17.516h-7.097V1.294h8.384l8.177 20.172 8.094-20.172h8.342ZM135.458 30.721c-2.739 0-5.257-.636-7.554-1.909-2.269-1.273-4.081-3.044-5.437-5.313-1.328-2.296-1.992-4.87-1.992-7.72 0-2.85.664-5.41 1.992-7.678 1.356-2.27 3.168-4.04 5.437-5.313 2.297-1.273 4.815-1.91 7.554-1.91 2.74 0 5.244.637 7.513 1.91a13.84 13.84 0 0 1 5.396 5.313c1.328 2.269 1.992 4.828 1.992 7.678 0 2.85-.664 5.424-1.992 7.72-1.329 2.27-3.127 4.04-5.396 5.313-2.269 1.273-4.773 1.91-7.513 1.91Zm0-6.474c2.325 0 4.178-.775 5.562-2.325 1.411-1.55 2.117-3.597 2.117-6.143 0-2.573-.706-4.62-2.117-6.143-1.384-1.55-3.237-2.324-5.562-2.324-2.352 0-4.233.761-5.645 2.283-1.383 1.522-2.075 3.583-2.075 6.184 0 2.574.692 4.635 2.075 6.185 1.412 1.521 3.293 2.283 5.645 2.283ZM169.167 30.43l-6.06-10.998h-1.702V30.43h-7.098V1.294h11.913c2.296 0 4.247.4 5.852 1.203 1.633.803 2.85 1.91 3.653 3.32.802 1.384 1.203 2.934 1.203 4.65 0 1.936-.553 3.666-1.66 5.188-1.079 1.522-2.684 2.6-4.815 3.237l6.724 11.539h-8.01Zm-7.762-16.02h4.4c1.3 0 2.269-.319 2.905-.955.664-.636.996-1.536.996-2.698 0-1.107-.332-1.978-.996-2.615-.636-.636-1.605-.954-2.905-.954h-4.4v7.222ZM203.589 10.674c0 1.688-.387 3.238-1.162 4.649-.775 1.383-1.965 2.504-3.569 3.362-1.605.858-3.598 1.286-5.977 1.286h-4.4v10.46h-7.097V1.294h11.497c2.324 0 4.289.4 5.894 1.203 1.604.803 2.808 1.91 3.611 3.32.802 1.412 1.203 3.03 1.203 4.857Zm-11.248 3.652c1.356 0 2.366-.318 3.03-.954.664-.636.996-1.536.996-2.698s-.332-2.061-.996-2.698c-.664-.636-1.674-.955-3.03-.955h-3.86v7.305h3.86ZM232.52 1.294V30.43h-7.098V18.436h-11.04V30.43h-7.098V1.294h7.098v11.414h11.04V1.294h7.098ZM244.741 1.294V30.43h-7.097V1.294h7.097Z" fill="#000"/><path d="m267.74 30.43-5.935-8.923-5.23 8.924h-8.052l9.339-14.818-9.546-14.32h8.259l5.853 8.8 5.146-8.8h8.052l-9.255 14.694L276 30.43h-8.26Z" fill="#7000FF"/></svg>
